X: 8
T: Shoe The Donkey
R: mazurka
M: 3/4
L: 1/8
K: Gmaj
|: "variation"B>c |\
d2 b2 d2 | g4 d>g | f2 e2 d2 | A2- A>B A>G |
F2 A2 d2 | f4 f>e |[1 d2 c>d e>d | B4 :|[2 d2 c>d e>f | g4 |]


Tune 2320	Setting 2320

